X: 100195
M: 2/4
L: 1/16
K: F
|:\
vcAcf e2d2 | c2A2 FAcd | c2B2 EGBd | c2A2 FGAB |\
cAcf e2d2 | c2A2 FAcd | cBGE C2DE | [F2A,2][F2A,2][F2A,2] :|
K: C
|: vEuF |\
K: Bb
"1st Trio"\
|: uF2 |\
K: Bb
"2nd Trio"\
|: F2 !segno!|\


